X: 108103
T: GLEN GRANT
Q:"Strathspey."
R: Strathspey.
%R:strathspey
Z: 2017 by John Chambers <jc:trillian.mit.edu>
B: Kerr's Merrie Melodies v.1 p.8 s.1 #3
M: C
L: 1/16
K: A
|:\
vA,A,3 vA3uE vF3uE vCuE3 | EA3 B3c dcBA GFED |\
CE3 A3E F3E CE3 | B,B,3 A,3E A4- A2 :|\
f2 |\
e3Ac3A dcBA Af3 | e3A c3A (efg2) a3uf |
e3Ac3A (3(A2B2A2) (FA3) | EC3 E3F A4 (A3f) |\
e3Ac3A dcBA Af3 | e3Ac3A (efg2) a3e |\
fa3 ce3 Ac3 FA3 | EC3 E3F A4 A4 |]

%%sep 1 1 500
%%sep 1 1 500

